X:720
T:Mrs. Moneypenny
R:Reel
B:The Athole Collection
M:C|
L:1/8
K:C
f|ecdB c2Gc|EcGc Bddf|eccB cGAF|E/F/G Gg ecc:|
e/f/|gcec GcEc|Gcec defa|gcec gcac|fdBg ecce/f/|gcac gcec|
GcEc defd|ecge fadf|egGf|ec~c||

